X:108
T:Marche "de Toine"
O:France
A:Provence
C:Trad.
R:Marche
M:2/4
L:1/8
K:Bb
P:A
f |: Ldd/d/ df | Lee/e/ ef | dd fd | c2-!breath!c f | Ldd/d/ df | Lee/e/ ef | d2 c2 |1 B2 zf :|2 B2zf |:
P:B
b2 a2 | g2f2 | e>f gg | (g2 !breath!f) f | b2a2 | g2f2 | e>f gg |1 f2 zf :|2 f2zf |:
P:C
Ldd/d/ df | Lee/e/ ef |1 dd fd | c2-!breath!c f :|2 d2c2 | B2-Bz |:
K:F
P:D
cA f(e/d/) | c1A1 | B(c/d/) ef | g2!breath!f2 | cA f(e/d/) | c2 A2 | B(c/d/) eg | f2-fz ::
K:Bb
P:E
df df | !breath! d4 | de fg | (f2e)z | ce ce | c3f | a>g f/e/d/c/ |1 (d2B) z :|2 B.d/.f/ |.b || f
<end>
<start>
